_site/img/icons/strengthsFinder.svg

<svg fill="none" height="128" viewBox="0 0 128 128" width="128" xmlns="http://www.w3.org/2000/svg" xmlns:xlink="http://www.w3.org/1999/xlink"><clipPath id="a"><path d="m0 0h128v128h-128z"/></clipPath><g clip-path="url(#a)"><path d="m111.625 99.625-13.6875-54.75c-.75-2.8125-3.1875-4.6875-5.8125-4.6875h-11.25c.5625-2.0625 1.125-3.9375 1.125-6 0-10.125-8.0625-18-18-18-10.125 0-18 7.875-18 18 0 2.0625.375 3.9375.9375 6h-11.25c-2.625 0-5.0625 1.875-5.8125 4.6875l-13.6875 54.75c-1.5 6.375 2.8125 12.375 8.8125 12.375h77.812c6 0 10.313-6 8.813-12.375zm-47.625-59.625c-3.375 0-6-2.625-6-6 0-3.1875 2.625-6 6-6 3.1875 0 6 2.8125 6 6 0 3.375-2.8125 6-6 6z" fill="#000"/></g></svg>

<svg width="128" height="128" viewBox="0 0 128 128" fill="none" xmlns="http://www.w3.org/2000/svg">
<g clip-path="url(#clip0)">
<path d="M111.625 99.625L97.9375 44.875C97.1875 42.0625 94.75 40.1875 92.125 40.1875H80.875C81.4375 38.125 82 36.25 82 34.1875C82 24.0625 73.9375 16.1875 64 16.1875C53.875 16.1875 46 24.0625 46 34.1875C46 36.25 46.375 38.125 46.9375 40.1875H35.6875C33.0625 40.1875 30.625 42.0625 29.875 44.875L16.1875 99.625C14.6875 106 19 112 25 112H102.812C108.812 112 113.125 106 111.625 99.625ZM64 40C60.625 40 58 37.375 58 34C58 30.8125 60.625 28 64 28C67.1875 28 70 30.8125 70 34C70 37.375 67.1875 40 64 40Z" fill="black"/>
</g>
<defs>
<clipPath id="clip0">
<rect width="128" height="128" fill="white"/>
</clipPath>
</defs>
</svg>
